src/assets/images/icon-quotes.svg

<svg width="29" height="24" viewBox="0 0 29 24" fill="none" xmlns="http://www.w3.org/2000/svg">
<path d="M28.976 -3.8147e-06C28.2507 1.70666 27.696 3.264 27.312 4.672C26.928 6.08 26.736 7.36 26.736 8.512C26.736 9.83466 26.9067 10.9653 27.248 11.904C27.5893 12.8427 27.9307 13.76 28.272 14.656C28.656 15.552 28.848 16.6187 28.848 17.856C28.848 19.392 28.2507 20.7147 27.056 21.824C25.8613 22.9333 24.2827 23.488 22.32 23.488C20.3147 23.488 18.736 22.8693 17.584 21.632C16.432 20.3947 15.856 18.6453 15.856 16.384C15.856 14.848 16.2187 13.0987 16.944 11.136C17.6693 9.17333 18.6293 7.21066 19.824 5.248C21.0613 3.28533 22.4693 1.536 24.048 -3.8147e-06H28.976ZM13.68 -3.8147e-06C12.9547 1.70666 12.4 3.264 12.016 4.672C11.632 6.08 11.44 7.36 11.44 8.512C11.44 9.83466 11.6107 10.9653 11.952 11.904C12.2933 12.8427 12.6347 13.76 12.976 14.656C13.36 15.552 13.552 16.6187 13.552 17.856C13.552 19.392 12.9547 20.7147 11.76 21.824C10.5653 22.9333 8.98667 23.488 7.024 23.488C5.01867 23.488 3.44 22.8693 2.288 21.632C1.136 20.3947 0.56 18.6453 0.56 16.384C0.56 14.848 0.922667 13.0987 1.648 11.136C2.37333 9.17333 3.33333 7.21066 4.528 5.248C5.76533 3.28533 7.17333 1.536 8.752 -3.8147e-06H13.68Z" fill="#F58020"/>
</svg>

<svg width="29" height="24" fill="none" xmlns="http://www.w3.org/2000/svg"><path d="M28.976 0c-.725 1.707-1.28 3.264-1.664 4.672-.384 1.408-.576 2.688-.576 3.84 0 1.323.17 2.453.512 3.392.341.939.683 1.856 1.024 2.752.384.896.576 1.963.576 3.2 0 1.536-.597 2.859-1.792 3.968-1.195 1.11-2.773 1.664-4.736 1.664-2.005 0-3.584-.619-4.736-1.856-1.152-1.237-1.728-2.987-1.728-5.248 0-1.536.363-3.285 1.088-5.248.725-1.963 1.685-3.925 2.88-5.888A28.452 28.452 0 0 1 24.048 0h4.928ZM13.68 0c-.725 1.707-1.28 3.264-1.664 4.672-.384 1.408-.576 2.688-.576 3.84 0 1.323.17 2.453.512 3.392.341.939.683 1.856 1.024 2.752.384.896.576 1.963.576 3.2 0 1.536-.597 2.859-1.792 3.968-1.195 1.11-2.773 1.664-4.736 1.664-2.005 0-3.584-.619-4.736-1.856C1.136 20.395.56 18.645.56 16.384c0-1.536.363-3.285 1.088-5.248.725-1.963 1.685-3.925 2.88-5.888A28.455 28.455 0 0 1 8.752 0h4.928Z" fill="#F58020"/></svg>
